X:151
T:Jamboree (Sharp)
M:4/4
L:1/8
K:G
D2|\
G3A B2c2|d3B c2e2|e2G2 GGG2|AAAG FEDD|
G3A B2c2|d3B c2e2|dddc B2A2|G6 ||
